!!!OTL: "Der Wunsch" ES IS NIT LANG, DASS G'REGNET HAT
!!!ARE: Europa, Mitteleuropa, Schweiz
!!!SCT: Z1254
!!!YEM: Copyright 1995, estate of Helmut Schaffrath.
**kern
*ICvox
*Ivox
*M2/4
*k[f#]
*G:
{16b
16cc
=1
8dd
8b
8cc
8a
=2
16b
16a
16b
16cc
8b}
{16b
16cc
=3
8dd
8b
8cc
8a
=4
4b
8r}
{8b
=5
8.b
16a
8a
8cc
=6
8.cc
16b
8b}
{8dd
=7
8gg
8dd
16b
16dd
16cc
16a
=8
4g
8r}
==
!!!AGN: Liebes - Lied, verlassene Liebe
!!!ONB: ESAC (Essen Associative Code) Database: ZUCCAL
!!!AMT: simple duple
!!!AIN: vox
!!!EED: Helmut Schaffrath
!!!EEV: 1.0
*-
